!!!COM:	Bach, Johann Sebastian
!!!CDT:	1685/02/21/-1750/07/28/
!!!OTL@@DE:	Ein feste Burg ist unser Gott
!!!SCT:	BWV 80/8
!!!PC#:	273
!!!AGN:	chorale
**kern	**kern	**kern	**kern
*ICvox	*ICvox	*ICvox	*ICvox
*Ibass	*Itenor	*Ialto	*Isoprn
*I"Bass	*I"Tenor	*I"Alto	*I"Soprano
*>[A,A,B]	*>[A,A,B]	*>[A,A,B]	*>[A,A,B]
*>norep[A,B]	*>norep[A,B]	*>norep[A,B]	*>norep[A,B]
*>A	*>A	*>A	*>A
*	*oclefC4	*oclefC3	*oclefC1
*clefF4	*clefGv2	*clefG2	*clefG2
*k[f#c#]	*k[f#c#]	*k[f#c#]	*k[f#c#]
*D:	*D:	*D:	*D:
*M4/4	*M4/4	*M4/4	*M4/4
*met(c)	*met(c)	*met(c)	*met(c)
*MM100	*MM100	*MM100	*MM100
8dL	8f#L	4a	4dd
8c#J	8eJ	.	.
=1	=1	=1	=1
4B	8dL	8aL	4dd
.	8eJ	8gJ	.
8AL	8f#L	8f#L	4dd
8GJ	8gJ	8eJ	.
8F#L	4a	4d	8aL
8GJ	.	.	8bJ
8F#L	4g	4e	4cc#
8EJ	.	.	.
=2	=2	=2	=2
4D	4f#	8A	8ddL
.	.	4a	8cc#J
4E	8BL	.	4b
.	8eJ	8g#	.
4AA;	4c#;	4e;	4a;
4BB	8F#L	4b-	4dd
.	8G#J	.	.
=3	=3	=3	=3
8C#L	4A	8eL	4cc#
8DJ	.	8f#J	.
4E	8eL	4gnX	4b
.	8dJ	.	.
4F#	4c#	8f#L	4a
.	.	8eJ	.
8GnXL	8BL	8dL	8bL
8AJ	8c#J	8c#J	8aJ
=4	=4	=4	=4
8BL	4d	4B	8gL
8GJ	.	.	8f#J
4A	8AL	4c#	4e
.	8GJ	.	.
4D;	4F#;	4A;	4d;
=:|!	=:|!	=:|!	=:|!
*>B	*>B	*>B	*>B
8DL	8F#L	4d	4d
8EJ	8GJ	.	.
=5	=5	=5	=5
4F#	8AL	8c#L	4a
.	8dJ	8f#J	.
4G#	8c#L	4e	4b
.	8BJ	.	.
8AL	4c#	8eL	4a
8DJ	.	8f#J	.
4E	4B	4e	4g#
=6	=6	=6	=6
2AA;	2c#;	2e;	2a;
4BB	8F#L	4d	4d
.	8GJ	.	.
4F#	4A	8dL	4a
.	.	8cJ	.
=7	=7	=7	=7
4G	4d	8BL	4b
.	.	8dJ	.
4E	4e	4g	4cc#X
4D;	4A;	4f#;	4dd;
4F#	4A	4f#	4cc#
=8	=8	=8	=8
4BB	8AL	4f#	4dd
.	8G#J	.	.
4C#	4A	8eL	4cc#
.	.	8aJ	.
4D	4A	4f#	2b
4E	4G#	8eL	.
.	.	8dJ	.
=9	=9	=9	=9
4AA;	4E;	4c#;	4a;
8EL	8GnXL	4e	4b
8F#J	8AJ	.	.
4G	8BL	8dL	4b
.	8c#J	8eJ	.
4D	8dL	4f#	4a
.	8cJ	.	.
=10	=10	=10	=10
4D#	4B	4f#	8bL
.	.	.	8aJ
4E	4B	8f#L	4g
.	.	8eJ	.
4BB;	4B;	4d#;	4f#;
4BB	8BL	4f#	4dd
.	8AJ	.	.
=11	=11	=11	=11
8EL	8GL	4e	4cc#
8F#J	8AJ	.	.
8GL	4B	8dnXL	4b
8EJ	.	8gJ	.
8C#L	8eL	8gL	4a
8AAJ	8c#J	16f#L	.
.	.	16eJJ	.
8DnXL	4d	4f#	8bL
8C#J	.	.	8aJ
=12	=12	=12	=12
8BBL	4d	8gL	8gL
8GGJ	.	8BJ	8f#J
4AA	8AL	4c#	4e
.	8GJ	.	.
4D;	4F#;	4A;	4d;
==	==	==	==
*-	*-	*-	*-
!!!YOR1: 371 vierstimmige Choralges&auml;nge von Johann Sebastian Bach, 
!!!YOR2: 4th ed. by Alfred D&ouml;rffel (Leipzig: Breitkopf und H&auml;rtel, 
!!!YOR2: c.1875). 178 pp. Plate "V.A.10".  reprint: J.S. Bach, 371 Four-Part 
!!!YOR4: Chorales (New York: Associated Music Publishers, Inc., c.1940).
!!!SMS: B&H, 4th ed, Alfred D&ouml;rffel, c.1875, plate V.A.10
!!!EED:  Craig Stuart Sapp
!!!EEV:  2009/05/22
